X: 6707
T: Ceol Na Mara
R: slip jig
M: 9/8
K: Dmajor
D3 F3 A2d|BAF E3 FEF|D3 F3 A2d|BAF F2A B2A|
D3 FG/A/F A2d|BAF E3 FEF|D3 FG/A/F A2d|BAF F2A B2A||
B3 B2d edB|F3 F2A BAF|A3 ABd edd|f3 a3 fed|
B3 B2d edB|F3 F2A BAF|AFE EFD D3|AFE EFA B2A||

